app/images/about/team/google.svg

<svg xmlns="http://www.w3.org/2000/svg" width="23" height="15"><path fill-rule="evenodd" fill="#888" d="M22.691 5.835v.069l-.014 1.816-.001.076H20.17l-.018 2.431-.001.069H18.19v-.069l.019-2.431h-2.507l.001-.076.014-1.816v-.069h2.507l.018-2.438.001-.069h1.961l-.001.069-.018 2.438h2.506zm-13.584 8.28a7.722 7.722 0 01-2.356.235c-1.409-.083-2.689-.525-3.823-1.361C1.466 11.912.545 10.475.158 8.701A6.498 6.498 0 01.02 6.767a7.048 7.048 0 011.62-4.102A7.123 7.123 0 015.505.207a5.767 5.767 0 011.19-.186C6.922.013 7.15 0 7.378 0a6.743 6.743 0 013.398.932c.701.401 1.098.808 1.269.932-.716.705-1.404 1.395-2.107 2.086-.522-.45-1.099-.863-2.099-1.016a4.423 4.423 0 00-.613-.044c-2.007 0-3.688 1.451-4.136 3.353a3.945 3.945 0 00-.1 1.298c.153 1.768 1.336 3.218 2.935 3.736.407.128.829.189 1.254.189.099 0 .198-.003.298-.009.753-.049 1.458-.249 2.098-.671 1.075-.732 1.423-1.878 1.425-2.161H7.154l.021-2.77.007-.117h6.754c.364 2.107.036 4.323-1.275 6.056-.907 1.195-2.114 1.948-3.554 2.321z"/></svg>

<svg 
 xmlns="http://www.w3.org/2000/svg"
 xmlns:xlink="http://www.w3.org/1999/xlink"
 width="23px" height="15px">
<path fill-rule="evenodd"  fill="rgb(136, 136, 136)"
 d="M22.691,5.835 L22.691,5.904 L22.677,7.720 L22.676,7.796 L22.601,7.796 L20.170,7.796 L20.152,10.227 L20.151,10.296 L20.082,10.296 L18.259,10.296 L18.190,10.296 L18.190,10.227 L18.209,7.796 L15.778,7.796 L15.702,7.796 L15.703,7.720 L15.717,5.904 L15.717,5.835 L15.793,5.835 L18.224,5.835 L18.242,3.397 L18.243,3.328 L18.312,3.328 L20.135,3.328 L20.204,3.328 L20.203,3.397 L20.185,5.835 L22.616,5.835 L22.691,5.835 ZM9.107,14.115 C8.469,14.280 7.821,14.361 7.168,14.361 C7.029,14.361 6.890,14.357 6.751,14.350 C5.342,14.267 4.062,13.825 2.928,12.989 C1.466,11.912 0.545,10.475 0.158,8.701 C0.017,8.058 -0.033,7.416 0.020,6.767 C0.122,5.234 0.657,3.860 1.640,2.665 C2.658,1.415 3.955,0.600 5.505,0.207 C5.899,0.103 6.294,0.041 6.695,0.021 C6.922,0.013 7.150,-0.000 7.378,-0.000 C8.593,0.013 9.731,0.318 10.776,0.932 C11.477,1.333 11.874,1.740 12.045,1.864 C11.329,2.569 10.641,3.259 9.938,3.950 C9.416,3.500 8.839,3.087 7.839,2.934 C7.632,2.905 7.427,2.890 7.226,2.890 C5.219,2.890 3.538,4.341 3.090,6.243 C2.983,6.670 2.953,7.106 2.990,7.541 C3.143,9.309 4.326,10.759 5.925,11.277 C6.332,11.405 6.754,11.466 7.179,11.466 C7.278,11.466 7.377,11.463 7.477,11.457 C8.230,11.408 8.935,11.208 9.575,10.786 C10.650,10.054 10.998,8.908 11.000,8.625 L7.154,8.625 C7.154,8.530 7.168,6.733 7.175,5.855 L7.182,5.738 L13.936,5.738 C14.300,7.845 13.972,10.061 12.661,11.794 C11.754,12.989 10.547,13.742 9.107,14.115 Z"/>
</svg>
